X: 1
T: Cape Breton Fiddlers' Society's Welcome To The Shetland Islands, The
C: Willie Hunter
Z: CreadurMawnOrganig
S: https://thesession.org/tunes/1048#setting14275
R: reel
M: 4/4
L: 1/8
K: Amaj
fg|ae(3eee efed|ce(3eee fece|bffe fgfe|defd B2ed|
cdBc ABGA|FGEF DECD|BCDE FABc|defg a2||

